src/images/logo.svg

<svg xmlns="http://www.w3.org/2000/svg" xmlns:xlink="http://www.w3.org/1999/xlink" version= "1.1" viewBox="0 0 845 1024" class="logo">
	<g id="layer1" fill="#92aabf" style="transform: translateY(23%)">
		<path id="eye1" d="M300.54337,-225.99895C275.82663,-225.11752,236.92603,-224.86774,216.64096,-224.79694C208.77682,-224.76947,203.71039,-224.76897,203.35294,-224.76897L203.33269,-224.76897C202.86238,-224.76901,202.39381,-224.76903,201.927,-224.76903C185.07603,-224.76903,170.47382,-224.74011,158.0533,-224.69682C120.985275,-224.56743,103.346565,-224.30966,103.346565,-224.30966C65.25105,-223.75302,43.98098,-196.76959,43.98098,-196.76959C26.464252,-174.54785,22.986908,-167.07803,22.830177,-103.35803L22.703129,-51.778603L201.37444,-50.737328L385.68304,-50.996265L385.59296,-73.535225L385.30368,-146.11166C385.1618,-149.26724,386.23093,-177.71857,366.07578,-201.26303C345.9213,-224.80746,300.54337,-225.99895,300.54337,-225.99895 Z" />
		<path id="eye2" d="M546.3915,-224.27931C546.3915,-224.27931,501.00793,-223.67636,480.6961,-200.39427C460.3841,-177.11226,461.2631,-148.64835,461.10013,-145.49472L461.09625,-145.14268L461.08762,-145.1411C461.08743,-145.13425,461.08707,-145.12572,461.08688,-145.11703L461.09607,-145.11708L460.32498,-72.925156L460.08414,-50.38839L644.3834,-47.739048L823.0555,-46.462955L823.27374,-98.04185C823.5418,-161.76125,820.1149,-169.27592,802.748,-191.72388C802.748,-191.72388,781.6588,-218.98201,743.5686,-220.0327C743.5686,-220.0327,711.69476,-220.91199,643.5899,-221.7887C643.5899,-221.7887,581.0413,-222.59387,546.3915,-224.27931 Z" />
		<path id="ds" d="M207.50171,358.43448C209.71585,358.43448,214.57275,360.67273,224.49866,366.09937C260.949,386.02676,306.3585,401.321,346.95557,408.00522C353.79788,409.1317,361.76938,410.48746,364.6,410.8491L369.7596,411.73434L358.9187,445.471C353.06567,463.9192,344.69507,490.6979,340.3194,504.806C324.5386,555.6858,314.73904,580.85364,280.36832,597.90576C270.01572,603.04175,260.29538,605.1328,246.71155,605.36206C245.96689,605.3745,245.2456,605.38074,244.54626,605.38074C231.30391,605.38074,225.9124,603.19006,218.31479,601.1199C187.57275,592.7418,169.07996,572.9514,160.4165,538.35376L160.419,538.35376L160.42212,538.35205C156.08914,521.4696,155.3513,483.123,158.84134,462.97678C163.1362,438.1849,175.83229,408.35724,196.06682,374.98505C200.75224,367.2579,205.24988,360.09732,206.23094,358.91428C206.4909,358.60083,206.8981,358.43448,207.50171,358.43448 Z M56.390198,23.567516C37.32799,23.567516,23.81388,23.87799,23.510296,24.470442C22.387161,26.660866,25.348701,60.1632,28.616665,80.70784C36.956787,133.1382,54.28578,182.82501,79.35443,225.43242C85.270096,235.48663,90.17053,244.21399,90.16391,244.88065C90.158844,245.38074,86.000374,252.22577,80.67487,260.12433C42.676315,316.4823,15.642801,394.52118,9.598925,464.82007L9.602051,464.82013L9.604832,464.82013C4.325697,525.95496,15.251717,589.0591,39.871265,639.34863C76.52184,714.2146,147.81226,765.7986,230.7283,776.97156C246.25656,779.0641,261.03452,780.1167,275.12686,780.1167C320.419,780.1167,358.63046,769.24365,391.91583,747.073C436.55875,717.3375,466.04898,668.61694,498.71667,570.5792C523.8009,495.30048,534.4551,470.61697,549.4155,452.37808C564.16095,434.40137,575.3303,427.71957,594.0266,426.14822C596.4425,425.94525,598.8388,425.84445,601.2113,425.84445C622.2651,425.84445,641.4542,433.7794,655.9902,448.60895C673.15454,466.1201,679.31146,484.52142,680.44293,520.87866C681.33057,549.39734,679.0139,565.8877,671.1027,587.9758C664.4356,606.5896,658.2407,619.3346,642.66046,647.8788C629.3686,672.2307,626.5505,682.0476,629.1859,694.92737C632.9088,713.12244,640.4455,719.3816,696.48926,750.28625L739.2684,773.8889L747.35657,765.2999C771.4557,739.532,798.3875,688.3048,811.4288,643.5646C832.7439,570.4404,833.1743,483.40295,812.4753,422.16446C795.1196,370.81644,766.38556,329.50412,725.3606,297.24945L718.41376,291.67813L730.228,277.29114C760.43695,240.747,780.57825,203.91248,797.9764,154.75894C809.7452,121.508255,816.9892,87.42521,821.6068,42.455593L822.88727,31.13118L768.04004,30.582584C757.9817,30.481987,749.41895,30.413559,742.0851,30.413559C704.08044,30.413559,699.0731,32.25114,689.9091,40.9717C683.50397,47.067364,675.63513,62.04609,664.76,88.40354C646.92944,131.61722,624.05133,159.20879,586.4507,183.32072C545.1106,209.83072,489.35907,223.87892,426.2668,223.87892C424.84445,223.87892,423.41833,223.8718,421.9886,223.85748C297.4581,222.61186,212.38007,172.59573,177.83643,80.532875C174.70392,72.184044,171.20589,63.278343,169.86769,60.44638C168.59349,57.74996,166.14557,52.391415,164.48305,48.72158C162.8827,45.18954,158.6157,39.28543,155.10912,35.790073C144.25334,24.969858,139.21846,24.293825,78.03671,23.682047C70.363,23.605276,63.039146,23.567516,56.390198,23.567516 Z"/>
	</g>
</svg>

<svg xmlns="http://www.w3.org/2000/svg" viewBox="0 0 845 1024" class="logo"><g fill="#92aabf" style="transform:translateY(23%)"><path d="M300.543-225.999c-24.716.881-63.617 1.131-83.902 1.202-7.864.028-12.93.028-13.288.028h-1.426c-16.851 0-31.453.029-43.874.072-37.068.13-54.706.387-54.706.387-38.096.557-59.366 27.54-59.366 27.54-17.517 22.222-20.994 29.692-21.15 93.412l-.128 51.58 178.671 1.04 184.309-.258-.09-22.54-.29-72.576c-.141-3.155.928-31.607-19.227-55.151-20.155-23.544-65.533-24.736-65.533-24.736zM546.391-224.28s-45.383.604-65.695 23.886c-20.312 23.282-19.433 51.746-19.596 54.9l-.004.351-.008.002-.001.024h.01l-.772 72.192-.24 22.537 184.298 2.649 178.673 1.276.218-51.579c.268-63.72-3.16-71.234-20.526-93.682 0 0-21.09-27.258-59.18-28.309 0 0-31.873-.879-99.978-1.756 0 0-62.549-.805-97.199-2.49zM207.502 358.434c2.214 0 7.07 2.239 16.997 7.665 36.45 19.928 81.86 35.222 122.457 41.906 6.842 1.127 14.813 2.482 17.644 2.844l5.16.885-10.841 33.737c-5.853 18.448-14.224 45.227-18.6 59.335-15.78 50.88-25.58 76.048-59.95 93.1-10.353 5.136-20.074 7.227-33.657 7.456-.745.013-1.466.019-2.166.019-13.242 0-18.634-2.19-26.231-4.261-30.742-8.378-49.235-28.169-57.898-62.766h.002l.003-.002c-4.333-16.882-5.07-55.229-1.58-75.375 4.294-24.792 16.99-54.62 37.225-87.992 4.685-7.727 9.183-14.888 10.164-16.07.26-.314.667-.48 1.27-.48zM56.39 23.568c-19.062 0-32.576.31-32.88.902-1.123 2.19 1.839 35.693 5.107 56.238 8.34 52.43 25.669 102.117 50.737 144.724 5.916 10.055 10.817 18.782 10.81 19.449-.005.5-4.164 7.345-9.49 15.243C42.677 316.482 15.644 394.521 9.6 464.82h.006c-5.28 61.135 5.647 124.24 30.266 174.529 36.65 74.866 107.941 126.45 190.857 137.623 15.529 2.092 30.307 3.145 44.399 3.145 45.292 0 83.503-10.873 116.789-33.044 44.643-29.736 74.133-78.456 106.8-176.494 25.085-75.279 35.74-99.962 50.7-118.2 14.745-17.978 25.914-24.66 44.61-26.23a85.812 85.812 0 017.185-.305c21.054 0 40.243 7.935 54.78 22.765 17.164 17.511 23.32 35.912 24.452 72.27.888 28.518-1.43 45.009-9.34 67.097-6.667 18.614-12.862 31.359-28.443 59.903-13.291 24.352-16.11 34.169-13.474 47.048 3.723 18.195 11.26 24.455 67.303 55.36l42.78 23.602 8.088-8.59c24.099-25.767 51.03-76.994 64.072-121.734 21.315-73.125 21.745-160.162 1.046-221.4-17.355-51.349-46.09-92.66-87.114-124.916l-6.947-5.57 11.814-14.388c30.209-36.544 50.35-73.379 67.748-122.532 11.77-33.25 19.013-67.334 23.63-112.303l1.281-11.325-54.847-.548c-10.058-.101-18.621-.17-25.955-.17-38.005 0-43.012 1.838-52.176 10.559-6.405 6.095-14.274 21.074-25.149 47.432-17.83 43.213-40.709 70.805-78.31 94.917-41.34 26.51-97.09 40.558-160.183 40.558-1.423 0-2.849-.007-4.278-.022-124.53-1.245-209.609-51.261-244.153-143.324-3.132-8.349-6.63-17.255-7.968-20.087-1.275-2.696-3.722-8.055-5.385-11.724-1.6-3.532-5.867-9.437-9.374-12.932-10.856-10.82-15.89-11.496-77.072-12.108-7.674-.077-14.998-.114-21.647-.114z"/></g></svg>
